X: 2242
T: Azel
R: reel
M: 4/4
K: Amajor
|:cA(3AAA cdec|deed efge|aege edce|decA BAFA|
E3A AAce|deed efge|aege edce|deed cA(3AAA:|
a3e eece|decA BAFA|E3A AAce|deed efge|
aege edce|decA BAFA|E3A AAce|deed cA(3AAA|
aeee fece|decA BAFA|EA(3AAA CA(3AAA|decA BAFA|
E3A AAce|deed efge|aege edce|deed cA(3AAA|

